src/ui/media/ferris.svg

<?xml version="1.0" encoding="UTF-8" standalone="no"?>
<svg
   width="573.12708"
   height="300"
   viewBox="0 0 573.12708 300"
   version="1.1"
   xml:space="preserve"
   style="clip-rule:evenodd;fill-rule:evenodd;stroke-linejoin:round;stroke-miterlimit:1.41421"
   id="svg9"
   sodipodi:docname="ferris.svg"
   inkscape:version="1.3 (0e150ed6c4, 2023-07-21)"
   xmlns:inkscape="http://www.inkscape.org/namespaces/inkscape"
   xmlns:sodipodi="http://sodipodi.sourceforge.net/DTD/sodipodi-0.dtd"
   xmlns="http://www.w3.org/2000/svg"
   xmlns:svg="http://www.w3.org/2000/svg"
   xmlns:serif="http://www.serif.com/"><defs
   id="defs9" /><sodipodi:namedview
   id="namedview9"
   pagecolor="#ffffff"
   bordercolor="#000000"
   borderopacity="0.25"
   inkscape:showpageshadow="2"
   inkscape:pageopacity="0.0"
   inkscape:pagecheckerboard="0"
   inkscape:deskcolor="#d1d1d1"
   inkscape:zoom="0.90583333"
   inkscape:cx="586.75253"
   inkscape:cy="309.65961"
   inkscape:window-width="1904"
   inkscape:window-height="995"
   inkscape:window-x="8"
   inkscape:window-y="40"
   inkscape:window-maximized="0"
   inkscape:current-layer="svg9" />&#10;    <g
   id="Layer-1"
   serif:id="Layer 1"
   transform="matrix(0.48948335,0,0,0.48948335,-6.4159726,-44.123987)">&#10;        <g
   transform="translate(1009.4,506.362)"
   id="g1">&#10;            <path
   d="m 0,-7.203 -12.072,-25.006 c 0.063,-0.947 0.111,-1.898 0.111,-2.853 0,-28.346 -29.478,-54.471 -79.069,-75.389 v 17.393 c -4.836,-1.919 -9.871,-3.787 -15.117,-5.593 v -8.108 c -70.874,-25.56 -176.383,-41.778 -294.241,-41.778 -102.973,0 -196.529,12.38 -265.791,32.554 v 28.246 h -0.002 v -34.188 c -70.96,22.55 -114.954,53.877 -114.954,88.515 0,5.46 1.101,10.838 3.217,16.113 l -7.228,12.867 c 0,0 -5.792,7.512 4.406,23.362 8.994,13.977 54.048,68.685 77.827,97.335 10.214,14.687 17.141,23.734 17.746,22.859 0.955,-1.386 -6.351,-28.961 -26.635,-60.423 -9.466,-16.895 -20.768,-39.283 -27.554,-55.819 18.942,11.99 130.23,68.029 357.232,67.801 231.994,-0.232 335.115,-72.851 346.433,-82.737 -3.955,15.889 -17.468,48.033 -28.245,70.638 -17.706,32.331 -24.12,60.478 -23.296,61.87 0.524,0.878 6.565,-8.441 15.476,-23.543 C -51.025,87.37 -11.739,30.974 -3.889,16.608 5.007,0.323 0,-7.203 0,-7.203"
   style="fill:#a52b00;fill-rule:nonzero"
   id="path1" />&#10;        </g>&#10;        <g
   transform="translate(1079.49,294.885)"
   id="g2">&#10;            <path
   d="m 0,204.135 -79.343,-58.446 c -0.745,-2.6 -1.49,-5.201 -2.26,-7.781 l 26.062,-37.754 c 2.66,-3.84 3.196,-8.832 1.469,-13.211 -1.731,-4.358 -5.515,-7.482 -9.99,-8.247 l -44.066,-7.479 c -1.709,-3.485 -3.498,-6.916 -5.294,-10.319 L -94.907,18.51 c 1.903,-4.317 1.505,-9.335 -1.022,-13.254 -2.517,-3.937 -6.786,-6.237 -11.338,-6.058 l -44.724,1.625 c -2.315,-3.016 -4.667,-6.003 -7.067,-8.937 l 10.278,-45.432 c 1.042,-4.612 -0.274,-9.443 -3.487,-12.794 -3.195,-3.339 -7.838,-4.722 -12.253,-3.639 l -43.562,10.709 c -2.82,-2.493 -5.688,-4.953 -8.588,-7.365 l 1.567,-46.641 c 0.168,-4.721 -2.033,-9.208 -5.812,-11.829 -3.777,-2.636 -8.57,-3.032 -12.701,-1.074 l -40.638,19.321 c -3.273,-1.878 -6.565,-3.737 -9.892,-5.537 l -7.181,-45.961 c -0.729,-4.656 -3.724,-8.612 -7.919,-10.418 -4.185,-1.817 -8.976,-1.228 -12.648,1.536 l -36.232,27.185 c -3.569,-1.185 -7.153,-2.32 -10.779,-3.407 l -15.617,-43.585 c -1.588,-4.443 -5.25,-7.706 -9.716,-8.624 -4.45,-0.909 -9.028,0.632 -12.114,4.08 l -30.499,34.119 c -3.685,-0.423 -7.377,-0.81 -11.076,-1.131 l -23.549,-39.676 c -2.384,-4.018 -6.597,-6.464 -11.139,-6.464 -4.529,0 -8.75,2.446 -11.118,6.464 l -23.555,39.676 c -3.701,0.321 -7.408,0.708 -11.088,1.131 l -30.499,-34.119 c -3.09,-3.448 -7.684,-4.989 -12.122,-4.08 -4.46,0.93 -8.128,4.181 -9.707,8.624 l -15.629,43.585 c -3.621,1.087 -7.205,2.23 -10.78,3.407 l -36.22,-27.185 c -3.683,-2.774 -8.478,-3.361 -12.668,-1.536 -4.181,1.806 -7.188,5.762 -7.913,10.418 l -7.186,45.961 c -3.322,1.8 -6.614,3.649 -9.895,5.537 l -40.634,-19.321 c -4.127,-1.966 -8.945,-1.562 -12.704,1.074 -3.773,2.621 -5.98,7.108 -5.81,11.829 l 1.562,46.641 c -2.894,2.412 -5.756,4.872 -8.591,7.365 l -43.554,-10.709 c -4.423,-1.074 -9.062,0.3 -12.265,3.639 -3.221,3.351 -4.526,8.182 -3.491,12.794 l 10.257,45.432 c -2.378,2.945 -4.733,5.921 -7.042,8.937 l -44.724,-1.625 c -4.513,-0.135 -8.821,2.121 -11.343,6.058 -2.527,3.919 -2.91,8.937 -1.029,13.254 l 18.528,42.388 c -1.799,3.403 -3.586,6.834 -5.309,10.319 l -44.063,7.479 c -4.479,0.754 -8.252,3.876 -9.994,8.247 -1.728,4.379 -1.167,9.371 1.474,13.211 l 26.066,37.754 c -0.201,0.667 -0.387,1.339 -0.587,2.008 l -73.696,78.285 c 0,0 -11.296,8.851 5.147,29.654 14.5,18.351 88.951,91.096 128.271,129.205 16.606,19.348 27.984,31.329 29.172,30.293 1.876,-1.645 -7.972,-36.847 -40.682,-78.149 -25.216,-37.056 -57.941,-94.049 -50.267,-100.618 0,0 8.729,-11.081 26.242,-19.057 0.641,0.512 -0.662,-0.507 0,0 0,0 369.595,170.491 712.429,2.884 39.164,-7.025 62.873,13.955 62.873,13.955 8.176,4.74 -12.996,63.344 -30.407,102.137 -23.679,44.05 -27.151,78.422 -25.144,79.614 1.268,0.757 9.883,-12.353 22.172,-33.217 C -67.814,332.649 -10.492,252.1 0,232.534 11.895,210.352 0,204.135 0,204.135"
   style="fill:#f74c00;fill-rule:nonzero"
   id="path2" />&#10;        </g>&#10;        <g
   transform="translate(917.896,244.679)"
   id="g3">&#10;            <path
   d="m 0,232.466 c 0,0 53.179,-2.466 123.032,-73.462 l 9.898,-21.979 c 0,0 -108.417,-107.848 60.118,-182.291 0,0 -14.755,24.112 -10.426,117.272 0,0 50.815,-17.649 65.714,-99.94 0,0 74.12,97.724 -80.502,189.377 0,0 -72.54,116.289 -174.805,105.15 z"
   style="fill:#f74c00;fill-rule:nonzero"
   id="path3" />&#10;        </g>&#10;        <g
   transform="translate(676.997,488.361)"
   id="g4">&#10;            <path
   d="m 0,-78.192 c 0,0 36.935,-40.443 73.871,0 0,0 29.022,53.927 0,80.887 0,0 -47.487,37.748 -73.871,0 0,0 -31.658,-29.659 0,-80.887"
   style="fill-rule:nonzero"
   id="path4" />&#10;        </g>&#10;        <g
   transform="translate(719.761,425.169)"
   id="g5">&#10;            <path
   d="m 0,0.004 c 0,15.746 -9.282,28.514 -20.732,28.514 -11.448,0 -20.73,-12.768 -20.73,-28.514 0,-15.75 9.282,-28.518 20.73,-28.518 C -9.282,-28.514 0,-15.746 0,0.004"
   style="fill:#ffffff;fill-rule:nonzero"
   id="path5" />&#10;        </g>&#10;        <g
   transform="translate(512.148,482.736)"
   id="g6">&#10;            <path
   d="m 0,-83.609 c 0,0 63.355,-28.052 80.648,34.562 0,0 18.114,72.98 -52.03,77.099 0,0 -89.444,-17.228 -28.618,-111.661"
   style="fill-rule:nonzero"
   id="path6" />&#10;        </g>&#10;        <g
   transform="translate(543.968,426.204)"
   id="g7">&#10;            <path
   d="m 0,0.002 c 0,16.239 -9.572,29.409 -21.381,29.409 -11.804,0 -21.379,-13.17 -21.379,-29.409 0,-16.244 9.575,-29.411 21.379,-29.411 C -9.572,-29.409 0,-16.242 0,0.002"
   style="fill:#ffffff;fill-rule:nonzero"
   id="path7" />&#10;        </g>&#10;        <g
   transform="translate(593.317,576.574)"
   id="g8">&#10;            <path
   d="m 0,-40.271 80.796,-6.484 c 0,0 -2.738,13.006 -13.279,22.769 0,0 -27.79,30.47 -59.673,-2.533 0,0 -5.217,-5.629 -7.844,-13.752"
   style="fill-rule:nonzero"
   id="path8" />&#10;        </g>&#10;        <g
   transform="translate(269.796,270.778)"
   id="g9">&#10;            <path
   d="m 0,190.741 c -0.667,0 -1.321,0.049 -1.973,0.101 -26.234,-5.971 -99.973,-25.185 -119.464,-56.363 0,0 99.227,-112.872 -55.86,-185.019 l 18.057,124.878 c 0,0 -47.809,-31.949 -58.126,-101.346 0,0 -116.423,84.494 51.384,165.474 0,0 15.22,57.187 161.349,102.815 l 0.107,-0.435 c 1.471,0.272 2.977,0.435 4.526,0.435 13.808,0 25.003,-11.312 25.003,-25.271 0,-13.956 -11.195,-25.269 -25.003,-25.269"
   style="fill:#f74c00;fill-rule:nonzero"
   id="path9" />&#10;        </g>&#10;    </g>&#10;</svg>

<?xml version="1.0" encoding="UTF-8" standalone="no"?>
<!DOCTYPE svg PUBLIC "-//W3C//DTD SVG 1.1//EN" "http://www.w3.org/Graphics/SVG/1.1/DTD/svg11.dtd">
<svg width="100%" height="100%" viewBox="0 0 1200 800" version="1.1" xmlns="http://www.w3.org/2000/svg" xmlns:xlink="http://www.w3.org/1999/xlink" xml:space="preserve" xmlns:serif="http://www.serif.com/" style="fill-rule:evenodd;clip-rule:evenodd;stroke-linejoin:round;stroke-miterlimit:1.41421;">
    <g id="Layer-1" serif:id="Layer 1">
        <g transform="matrix(1,0,0,1,1009.4,506.362)">
            <path d="M0,-7.203L-12.072,-32.209C-12.009,-33.156 -11.961,-34.107 -11.961,-35.062C-11.961,-63.408 -41.439,-89.533 -91.03,-110.451L-91.03,-93.058C-95.866,-94.977 -100.901,-96.845 -106.147,-98.651L-106.147,-106.759C-177.021,-132.319 -282.53,-148.537 -400.388,-148.537C-503.361,-148.537 -596.917,-136.157 -666.179,-115.983L-666.179,-87.737L-666.181,-87.737L-666.181,-121.925C-737.141,-99.375 -781.135,-68.048 -781.135,-33.41C-781.135,-27.95 -780.034,-22.572 -777.918,-17.297L-785.146,-4.43C-785.146,-4.43 -790.938,3.082 -780.74,18.932C-771.746,32.909 -726.692,87.617 -702.913,116.267C-692.699,130.954 -685.772,140.001 -685.167,139.126C-684.212,137.74 -691.518,110.165 -711.802,78.703C-721.268,61.808 -732.57,39.42 -739.356,22.884C-720.414,34.874 -609.126,90.913 -382.124,90.685C-150.13,90.453 -47.009,17.834 -35.691,7.948C-39.646,23.837 -53.159,55.981 -63.936,78.586C-81.642,110.917 -88.056,139.064 -87.232,140.456C-86.708,141.334 -80.667,132.015 -71.756,116.913C-51.025,87.37 -11.739,30.974 -3.889,16.608C5.007,0.323 0,-7.203 0,-7.203" style="fill:rgb(165,43,0);fill-rule:nonzero;"/>
        </g>
        <g transform="matrix(1,0,0,1,1079.49,294.885)">
            <path d="M0,204.135L-79.343,145.689C-80.088,143.089 -80.833,140.488 -81.603,137.908L-55.541,100.154C-52.881,96.314 -52.345,91.322 -54.072,86.943C-55.803,82.585 -59.587,79.461 -64.062,78.696L-108.128,71.217C-109.837,67.732 -111.626,64.301 -113.422,60.898L-94.907,18.51C-93.004,14.193 -93.402,9.175 -95.929,5.256C-98.446,1.319 -102.715,-0.981 -107.267,-0.802L-151.991,0.823C-154.306,-2.193 -156.658,-5.18 -159.058,-8.114L-148.78,-53.546C-147.738,-58.158 -149.054,-62.989 -152.267,-66.34C-155.462,-69.679 -160.105,-71.062 -164.52,-69.979L-208.082,-59.27C-210.902,-61.763 -213.77,-64.223 -216.67,-66.635L-215.103,-113.276C-214.935,-117.997 -217.136,-122.484 -220.915,-125.105C-224.692,-127.741 -229.485,-128.137 -233.616,-126.179L-274.254,-106.858C-277.527,-108.736 -280.819,-110.595 -284.146,-112.395L-291.327,-158.356C-292.056,-163.012 -295.051,-166.968 -299.246,-168.774C-303.431,-170.591 -308.222,-170.002 -311.894,-167.238L-348.126,-140.053C-351.695,-141.238 -355.279,-142.373 -358.905,-143.46L-374.522,-187.045C-376.11,-191.488 -379.772,-194.751 -384.238,-195.669C-388.688,-196.578 -393.266,-195.037 -396.352,-191.589L-426.851,-157.47C-430.536,-157.893 -434.228,-158.28 -437.927,-158.601L-461.476,-198.277C-463.86,-202.295 -468.073,-204.741 -472.615,-204.741C-477.144,-204.741 -481.365,-202.295 -483.733,-198.277L-507.288,-158.601C-510.989,-158.28 -514.696,-157.893 -518.376,-157.47L-548.875,-191.589C-551.965,-195.037 -556.559,-196.578 -560.997,-195.669C-565.457,-194.739 -569.125,-191.488 -570.704,-187.045L-586.333,-143.46C-589.954,-142.373 -593.538,-141.23 -597.113,-140.053L-633.333,-167.238C-637.016,-170.012 -641.811,-170.599 -646.001,-168.774C-650.182,-166.968 -653.189,-163.012 -653.914,-158.356L-661.1,-112.395C-664.422,-110.595 -667.714,-108.746 -670.995,-106.858L-711.629,-126.179C-715.756,-128.145 -720.574,-127.741 -724.333,-125.105C-728.106,-122.484 -730.313,-117.997 -730.143,-113.276L-728.581,-66.635C-731.475,-64.223 -734.337,-61.763 -737.172,-59.27L-780.726,-69.979C-785.149,-71.053 -789.788,-69.679 -792.991,-66.34C-796.212,-62.989 -797.517,-58.158 -796.482,-53.546L-786.225,-8.114C-788.603,-5.169 -790.958,-2.193 -793.267,0.823L-837.991,-0.802C-842.504,-0.937 -846.812,1.319 -849.334,5.256C-851.861,9.175 -852.244,14.193 -850.363,18.51L-831.835,60.898C-833.634,64.301 -835.421,67.732 -837.144,71.217L-881.207,78.696C-885.686,79.45 -889.459,82.572 -891.201,86.943C-892.929,91.322 -892.368,96.314 -889.727,100.154L-863.661,137.908C-863.862,138.575 -864.048,139.247 -864.248,139.916L-937.944,218.201C-937.944,218.201 -949.24,227.052 -932.797,247.855C-918.297,266.206 -843.846,338.951 -804.526,377.06C-787.92,396.408 -776.542,408.389 -775.354,407.353C-773.478,405.708 -783.326,370.506 -816.036,329.204C-841.252,292.148 -873.977,235.155 -866.303,228.586C-866.303,228.586 -857.574,217.505 -840.061,209.529C-839.42,210.041 -840.723,209.022 -840.061,209.529C-840.061,209.529 -470.466,380.02 -127.632,212.413C-88.468,205.388 -64.759,226.368 -64.759,226.368C-56.583,231.108 -77.755,289.712 -95.166,328.505C-118.845,372.555 -122.317,406.927 -120.31,408.119C-119.042,408.876 -110.427,395.766 -98.138,374.902C-67.814,332.649 -10.492,252.1 0,232.534C11.895,210.352 0,204.135 0,204.135" style="fill:rgb(247,76,0);fill-rule:nonzero;"/>
        </g>
        <g transform="matrix(1,0,0,1,917.896,244.679)">
            <path d="M0,232.466C0,232.466 53.179,230 123.032,159.004L132.93,137.025C132.93,137.025 24.513,29.177 193.048,-45.266C193.048,-45.266 178.293,-21.154 182.622,72.006C182.622,72.006 233.437,54.357 248.336,-27.934C248.336,-27.934 322.456,69.79 167.834,161.443C167.834,161.443 95.294,277.732 -6.971,266.593L0,232.466Z" style="fill:rgb(247,76,0);fill-rule:nonzero;"/>
        </g>
        <g transform="matrix(1,0,0,1,676.997,488.361)">
            <path d="M0,-78.192C0,-78.192 36.935,-118.635 73.871,-78.192C73.871,-78.192 102.893,-24.265 73.871,2.695C73.871,2.695 26.384,40.443 0,2.695C0,2.695 -31.658,-26.964 0,-78.192" style="fill-rule:nonzero;"/>
        </g>
        <g transform="matrix(1,0,0,1,719.761,425.169)">
            <path d="M0,0.004C0,15.75 -9.282,28.518 -20.732,28.518C-32.18,28.518 -41.462,15.75 -41.462,0.004C-41.462,-15.746 -32.18,-28.514 -20.732,-28.514C-9.282,-28.514 0,-15.746 0,0.004" style="fill:white;fill-rule:nonzero;"/>
        </g>
        <g transform="matrix(1,0,0,1,512.148,482.736)">
            <path d="M0,-83.609C0,-83.609 63.355,-111.661 80.648,-49.047C80.648,-49.047 98.762,23.933 28.618,28.052C28.618,28.052 -60.826,10.824 0,-83.609" style="fill-rule:nonzero;"/>
        </g>
        <g transform="matrix(1,0,0,1,543.968,426.204)">
            <path d="M0,0.002C0,16.241 -9.572,29.411 -21.381,29.411C-33.185,29.411 -42.76,16.241 -42.76,0.002C-42.76,-16.242 -33.185,-29.409 -21.381,-29.409C-9.572,-29.409 0,-16.242 0,0.002" style="fill:white;fill-rule:nonzero;"/>
        </g>
        <g transform="matrix(1,0,0,1,593.317,576.574)">
            <path d="M0,-40.271L80.796,-46.755C80.796,-46.755 78.058,-33.749 67.517,-23.986C67.517,-23.986 39.727,6.484 7.844,-26.519C7.844,-26.519 2.627,-32.148 0,-40.271" style="fill-rule:nonzero;"/>
        </g>
        <g transform="matrix(1,0,0,1,269.796,270.778)">
            <path d="M0,190.741C-0.667,190.741 -1.321,190.79 -1.973,190.842C-28.207,184.871 -101.946,165.657 -121.437,134.479C-121.437,134.479 -22.21,21.607 -177.297,-50.54L-159.24,74.338C-159.24,74.338 -207.049,42.389 -217.366,-27.008C-217.366,-27.008 -333.789,57.486 -165.982,138.466C-165.982,138.466 -150.762,195.653 -4.633,241.281L-4.526,240.846C-3.055,241.118 -1.549,241.281 0,241.281C13.808,241.281 25.003,229.969 25.003,216.01C25.003,202.054 13.808,190.741 0,190.741" style="fill:rgb(247,76,0);fill-rule:nonzero;"/>
        </g>
    </g>
</svg>
